svg/design/magic_2_fill.svg

<?xml version="1.0" encoding="UTF-8"?>
<svg width="24px" height="24px" viewBox="0 0 24 24" version="1.1" xmlns="http://www.w3.org/2000/svg" xmlns:xlink="http://www.w3.org/1999/xlink">
    <title>magic_2_fill</title>
    <g id="页面-1" stroke="none" stroke-width="1" fill="none" fill-rule="evenodd">
        <g id="Editor" transform="translate(-864.000000, -48.000000)">
            <g id="magic_2_fill" transform="translate(864.000000, 48.000000)">
                 <path d="M24,0 L24,24 L0,24 L0,0 L24,0 Z M12.5934901,23.257841 L12.5819402,23.2595131 L12.5108777,23.2950439 L12.4918791,23.2987469 L12.4918791,23.2987469 L12.4767152,23.2950439 L12.4056548,23.2595131 C12.3958229,23.2563662 12.3870493,23.2590235 12.3821421,23.2649074 L12.3780323,23.275831 L12.360941,23.7031097 L12.3658947,23.7234994 L12.3769048,23.7357139 L12.4804777,23.8096931 L12.4953491,23.8136134 L12.4953491,23.8136134 L12.5071152,23.8096931 L12.6106902,23.7357139 L12.6232938,23.7196733 L12.6232938,23.7196733 L12.6266527,23.7031097 L12.609561,23.275831 C12.6075724,23.2657013 12.6010112,23.2592993 12.5934901,23.257841 L12.5934901,23.257841 Z M12.8583906,23.1452862 L12.8445485,23.1473072 L12.6598443,23.2396597 L12.6498822,23.2499052 L12.6498822,23.2499052 L12.6471943,23.2611114 L12.6650943,23.6906389 L12.6699349,23.7034178 L12.6699349,23.7034178 L12.678386,23.7104931 L12.8793402,23.8032389 C12.8914285,23.8068999 12.9022333,23.8029875 12.9078286,23.7952264 L12.9118235,23.7811639 L12.8776777,23.1665331 C12.8752882,23.1545897 12.8674102,23.1470016 12.8583906,23.1452862 L12.8583906,23.1452862 Z M12.1430473,23.1473072 C12.1332178,23.1423925 12.1221763,23.1452606 12.1156365,23.1525954 L12.1099173,23.1665331 L12.0757714,23.7811639 C12.0751323,23.7926639 12.0828099,23.8018602 12.0926481,23.8045676 L12.108256,23.8032389 L12.3092106,23.7104931 L12.3186497,23.7024347 L12.3186497,23.7024347 L12.3225043,23.6906389 L12.340401,23.2611114 L12.337245,23.2485176 L12.337245,23.2485176 L12.3277531,23.2396597 L12.1430473,23.1473072 Z" id="MingCute" fill-rule="nonzero"></path>
                <path d="M6.74843,8.8759 C7.33421,9.46168 8.28396,9.46168 8.86975,8.8759 C9.45553,8.29011 9.45553,7.34036 8.86975,6.75458 L7.10474,4.98957 C6.51895,4.40378 5.5692,4.40378 4.98342,4.98957 C4.39763,5.57535 4.39763,6.5251 4.98342,7.11089 L6.74843,8.8759 Z M7.99,10.9999 C7.99,11.8283 7.31843,12.4999 6.49,12.4999 L3.9939,12.4999 C3.16547,12.4999 2.4939,11.8283 2.4939,10.9999 C2.4939,10.1715 3.16547,9.49992 3.9939,9.49992 L6.49,9.49992 C7.31843,9.49992 7.99,10.1715 7.99,10.9999 Z M12.7616,10.6464 C12.1758,10.0606 11.226,10.0606 10.6403,10.6464 C10.0545,11.2322 10.0545,12.1819 10.6403,12.7677 L19.1255,21.253 C19.7113,21.8388 20.6611,21.8388 21.2469,21.253 C21.8326,20.6672 21.8326,19.7174 21.2469,19.1316 L12.7616,10.6464 Z M17.9938,12.4999 C18.8222,12.4999 19.4938,11.8283 19.4938,10.9999 C19.4938,10.1715 18.8222,9.49992 17.9938,9.49992 L15.49,9.49992 C14.6616,9.49992 13.99,10.1715 13.99,10.9999 C13.99,11.8283 14.6616,12.4999 15.49,12.4999 L17.9938,12.4999 Z M9.49381,17.9999 C9.49381,18.8283 10.1654,19.4999 10.99381,19.4999 C11.8222,19.4999 12.49381,18.8283 12.49381,17.9999 L12.49381,15.4999 C12.49381,14.6714 11.8222,13.9999 10.99381,13.9999 C10.1654,13.9999 9.49381,14.6714 9.49381,15.4999 L9.49381,17.9999 Z M10.99381,7.99988 C10.1654,7.99988 9.49381,7.3283 9.49381,6.49988 L9.49381,4 C9.49381,3.17157 10.1654,2.5 10.99381,2.5 C11.8222,2.5 12.49381,3.17157 12.49381,4 L12.49381,6.49988 C12.49381,7.32831 11.8222,7.99988 10.99381,7.99988 Z M4.98353,17.0102 C4.39775,16.4244 4.39775,15.4746 4.98353,14.8889 L6.7513,13.1211 C7.33709,12.5353 8.28684,12.5353 8.87262,13.1211 C9.45841,13.7069 9.45841,14.6566 8.87262,15.2424 L7.10485,17.0102 C6.51907,17.596 5.56932,17.596 4.98353,17.0102 Z M13.1151,6.75726 C12.5293,7.34305 12.5293,8.2928 13.1151,8.87858 C13.7009,9.46437 14.6507,9.46437 15.2364,8.87858 L17.0041,7.1109 C17.5899,6.52512 17.5899,5.57537 17.0041,4.98958 C16.4183,4.4038 15.4686,4.4038 14.8828,4.98958 L13.1151,6.75726 Z" id="形状" fill="#09244B"></path>
            </g>
        </g>
    </g>
</svg>

<svg xmlns="http://www.w3.org/2000/svg" width="24" height="24"><g fill="none" fill-rule="evenodd"><path d="M24 0v24H0V0h24ZM12.593 23.258l-.011.002-.071.035-.02.004-.014-.004-.071-.035c-.01-.004-.019-.001-.024.005l-.004.01-.017.428.005.02.01.013.104.074.015.004.012-.004.104-.074.012-.016.004-.017-.017-.427c-.002-.01-.009-.017-.017-.018Zm.265-.113-.013.002-.185.093-.01.01-.003.011.018.43.005.012.008.007.201.093c.012.004.023 0 .029-.008l.004-.014-.034-.614c-.003-.012-.01-.02-.02-.022Zm-.715.002a.023.023 0 0 0-.027.006l-.006.014-.034.614c0 .012.007.02.017.024l.015-.002.201-.093.01-.008.004-.011.017-.43-.003-.012-.01-.01-.184-.092Z"/><path fill="#09244B" d="M6.748 8.876A1.5 1.5 0 0 0 8.87 6.755L7.105 4.99a1.5 1.5 0 1 0-2.122 2.12l1.765 1.766ZM7.99 11a1.5 1.5 0 0 1-1.5 1.5H3.994a1.5 1.5 0 0 1 0-3H6.49a1.5 1.5 0 0 1 1.5 1.5Zm4.772-.354a1.5 1.5 0 1 0-2.122 2.122l8.485 8.485a1.5 1.5 0 0 0 2.122-2.121l-8.485-8.486Zm5.232 1.854a1.5 1.5 0 0 0 0-3H15.49a1.5 1.5 0 0 0 0 3h2.504Zm-8.5 5.5a1.5 1.5 0 0 0 3 0v-2.5a1.5 1.5 0 1 0-3 0V18Zm1.5-10a1.5 1.5 0 0 1-1.5-1.5V4a1.5 1.5 0 0 1 3 0v2.5a1.5 1.5 0 0 1-1.5 1.5Zm-6.01 9.01a1.5 1.5 0 0 1 0-2.121L6.75 13.12a1.5 1.5 0 1 1 2.122 2.121L7.105 17.01a1.5 1.5 0 0 1-2.121 0Zm8.131-10.253a1.5 1.5 0 1 0 2.121 2.122l1.768-1.768a1.5 1.5 0 1 0-2.121-2.121l-1.768 1.767Z"/></g></svg>
